X: 17988
T: Hughie Kennedy's
R: jig
M: 6/8
K: Cmajor
|:CEG CEG|~c3 cAG|~A3 GEC|~D3 E2D|
CEG CEG|~c3 cAG|(4ABcA GEC|DED C3:|
|:G2 c cAG|g2a gec|~d3 cAG|e3 dcA|
G2 c cAG|g2a gec|~d3 cAG|A2B c3:|

